dist/svgs/core-ui-icons/free/cil-blur-linear.svg

<svg xmlns="http://www.w3.org/2000/svg" viewBox="0 0 512 512"><path d="M16 16h480v32H16zm0 448h480v32H16zm71.371-232.533A71.371 71.371 0 1016 160.1a71.45 71.45 0 0071.371 71.367zm0-110.741A39.371 39.371 0 1148 160.1a39.415 39.415 0 0139.371-39.374zm186.94 110.741A59.467 59.467 0 10214.843 172a59.533 59.533 0 0059.468 59.467zm0-86.934A27.467 27.467 0 11246.843 172a27.5 27.5 0 0127.468-27.467zm161.205 70.935a29.637 29.637 0 10-29.637-29.637 29.637 29.637 0 0029.637 29.637zM87.371 427.35A71.371 71.371 0 1016 355.979a71.451 71.451 0 0071.371 71.371zm0-110.742A39.371 39.371 0 1148 355.979a39.415 39.415 0 0139.371-39.371zm186.94 86.935a59.468 59.468 0 10-59.468-59.467 59.534 59.534 0 0059.468 59.467zm0-86.935a27.468 27.468 0 11-27.468 27.468 27.5 27.5 0 0127.468-27.468zm161.205 43.274a29.637 29.637 0 10-29.637-29.637 29.637 29.637 0 0029.637 29.637z"/></svg>

<svg xmlns="http://www.w3.org/2000/svg" viewBox="0 0 512 512">
  <rect width="480" height="32" x="16" y="16" fill="var(--ci-primary-color, currentColor)" class="ci-primary"/>
  <rect width="480" height="32" x="16" y="464" fill="var(--ci-primary-color, currentColor)" class="ci-primary"/>
  <path fill="var(--ci-primary-color, currentColor)" d="M87.371,231.467A71.371,71.371,0,1,0,16,160.1,71.45,71.45,0,0,0,87.371,231.467Zm0-110.741A39.371,39.371,0,1,1,48,160.1,39.415,39.415,0,0,1,87.371,120.726Z" class="ci-primary"/>
  <path fill="var(--ci-primary-color, currentColor)" d="M274.311,231.467A59.467,59.467,0,1,0,214.843,172,59.533,59.533,0,0,0,274.311,231.467Zm0-86.934A27.467,27.467,0,1,1,246.843,172,27.5,27.5,0,0,1,274.311,144.533Z" class="ci-primary"/>
  <path fill="var(--ci-primary-color, currentColor)" d="M435.516,215.468a29.637,29.637,0,1,0-29.637-29.637A29.637,29.637,0,0,0,435.516,215.468Z" class="ci-primary"/>
  <path fill="var(--ci-primary-color, currentColor)" d="M87.371,427.35A71.371,71.371,0,1,0,16,355.979,71.451,71.451,0,0,0,87.371,427.35Zm0-110.742A39.371,39.371,0,1,1,48,355.979,39.415,39.415,0,0,1,87.371,316.608Z" class="ci-primary"/>
  <path fill="var(--ci-primary-color, currentColor)" d="M274.311,403.543a59.468,59.468,0,1,0-59.468-59.467A59.534,59.534,0,0,0,274.311,403.543Zm0-86.935a27.468,27.468,0,1,1-27.468,27.468A27.5,27.5,0,0,1,274.311,316.608Z" class="ci-primary"/>
  <path fill="var(--ci-primary-color, currentColor)" d="M435.516,359.882a29.637,29.637,0,1,0-29.637-29.637A29.637,29.637,0,0,0,435.516,359.882Z" class="ci-primary"/>
</svg>
